X:1
T:Atlantic City, 12.11.12.11
T:Atlantic City, 12.11.12.11
T:Lyman F. Jackson, 1908
T:Public Domain Courtesy of the Cyber Hymnal™
C:Lyman F. Jackson, 1908
Z:Public Domain
Z:Courtesy of the Cyber Hymnal™
%%score ( 1 2 ) ( 3 4 )
L:1/8
Q:1/4=115
M:4/4
K:Eb
V:1 treble 
V:2 treble 
V:3 bass 
V:4 bass 
V:1
 [EG]2 | [EB]4 [FA]2 [EG]2 | [Ge]4 [Ad]2 [Ac]2 | [GB]4 [FA]2 [EG]2 | [EG]4 [DF]2 [DF]2 | %5
 [EG]4 [^CG]2 [CG]2 | [DF]4 [FB]2 [Gc]2 | [Fd]4 [DB]2 [Ec]2 | [DB]6 [DB]2 | [FA]4 [DG]2 [DF]2 | %10
 [EG]4 [EB]2 [EB]2 | [DA]4 [DG]2 [DF]2 | [EG]4 [GB]2 [GB]2 | [Ac]4 [Ad]2 [Ae]2 | %14
 [Ge]4 [GB]2 [FA]2 | [EG]4 [DG]2 F2 | [B,E]6 |] %17
V:2
 x2 | x8 | x8 | x8 | x8 | x8 | x8 | x8 | x8 | x8 | x8 | x8 | x8 | x8 | x8 | x6 (DB,) | x6 |] %17
V:3
 [E,B,]2 | [E,G,]4 [E,B,]2 [E,B,]2 | [E,B,]4 [F,B,]2 [F,D]2 | (E2 B,2) [D,B,]2 [E,B,]2 | %4
 [D,B,]4 [B,,B,]2 [B,,B,]2 | [E,B,]4 [=E,B,]2 [E,B,]2 | [F,B,]4 [D,B,]2 [E,B,]2 | %7
 [F,B,]4 [F,B,]2 [F,=A,]2 | [B,,B,]6 [B,,B,]2 | [D,B,]4 [B,,B,]2 [B,,B,]2 | %10
 [E,B,]4 [G,B,]2 [G,B,]2 | [F,B,]4 [B,,B,]2 [B,,B,]2 | [E,B,]4 [E,E]2 [E,E]2 | %13
 [A,E]4 [A,D]2 [A,C]2 | [E,B,]4 [E,E]2 [A,,C]2 | [B,,B,]4 [B,,B,]2 [B,,A,]2 | [E,G,]6 |] %17
V:4
 x2 | x8 | x8 | G,4 x4 | x8 | x8 | x8 | x8 | x8 | x8 | x8 | x8 | x8 | x8 | x8 | x8 | x6 |] %17

